X:345
%%etbk:tnset id:103,pos:3,rep:3x,ant:
%%etbk:wsite http://www.thesession.org/tunes/display/12
%%etbk:pldat 2016-09-07T15:42,2014-08-02T16:10,2014-07-30T18:18,2014-05-17T20:41,2014-05-09T18:41,2014-04-27T15:51,2014-02-15T16:15,2014-02-13T18:31,2014-02-11T16:36,2013-12-11T18:23,2013-11-17T15:43,2013-05-22T15:27
T: Cliffs Of Moher, The
Z: Piano Box Version by Martin Fleischmann
H: Created 2013-02-19 /  Last Modified 2013-02-19
M: 6/8
L: 1/8
R: jig
K: Ador
|: "am"!3!aaa !4!bag | !1!e!5!a!3!f !4!ge!1!d | !3!c2!1!A !5!BAG | "em"!1!E!2!F!1!G !2!A!3!B!4!d |
"am"!2!e!4!aa !5!bag | !2!e!5!a!3!f !4!ge!1!d | !3!c2!1!A !5!BAG | "em"!1!E!2!F!1!G "am"!2!A3:|
"am"!5!e2e !4!d!3!B!2!A | !5!e2e !4!d!3!B!2!A | "G"!1!GAB !4!d!3!B!2!A | !1!GAB !4!d!3!B!4!d |
"am"!5!e2e !4!d!3!B!2!A | !5!e2e !4!d!3!B!2!A | "G"!1!GAB !4!d!3!B!2!A | !1!E!2!F!1!G "am"!2!A3 |
"am"!5!e!2!Ae !4!d!3!B!2!A | !5!e!2!Ae !4!d!3!B!2!A | "G"!1!GAB !4!d!3!B!2!A  | !1!G!2!G!1!G !4!d!3!B!4!d |
"am"!2!eee !1!ded | !3!c!5!ec !2!B!5!eB | "G" !1!GAB !4!d!3!B!2!A | !1!E!2!F!1!G "am"!2!A3 ||
|"var bar 1"!4!a!1!A!4!a !5!bag|


